libs/ui/packages/crypto-icons/src/svg/ABI.svg

<svg width="24" height="24" viewBox="0 0 24 24" fill="none">
<path fill-rule="evenodd" clip-rule="evenodd" d="M11.9998 24.0001C18.6273 24.0001 24 18.6275 24 12C24 5.37259 18.6273 0 11.9998 0C7.96702 0 4.39884 1.98928 2.22306 5.0401H6.66327C7.19346 5.0401 7.62327 5.46991 7.62327 6.00011C7.62327 6.5303 7.19346 6.96011 6.66327 6.96011H1.10615C0.890889 7.4246 0.704462 7.90518 0.549166 8.39954H13.7222C14.2524 8.39954 14.6822 8.82935 14.6822 9.35954C14.6822 9.88974 14.2524 10.3195 13.7222 10.3195H0.116384C0.0432521 10.8414 0.00368631 11.374 -6.10352e-05 11.9152H4.6868C5.217 11.9152 5.64681 12.345 5.64681 12.8752C5.64681 13.4054 5.217 13.8352 4.6868 13.8352H0.139088C0.218896 14.3552 0.332089 14.8643 0.476412 15.3601H13.7222C14.2524 15.3601 14.6822 15.7899 14.6822 16.3201C14.6822 16.8503 14.2524 17.2801 13.7222 17.2801H1.2207C1.50445 17.8582 1.83335 18.4102 2.2028 18.9315H6.66327C7.19346 18.9315 7.62327 19.3613 7.62327 19.8915C7.62327 20.4217 7.19346 20.8515 6.66327 20.8515H3.89698C6.03192 22.8069 8.87653 24.0001 11.9998 24.0001ZM16.3582 17.2801C15.828 17.2801 15.3982 16.8503 15.3982 16.3201C15.3982 15.7899 15.828 15.3601 16.3582 15.3601C16.8884 15.3601 17.3182 15.7899 17.3182 16.3201C17.3182 16.8503 16.8884 17.2801 16.3582 17.2801ZM15.3982 9.35954C15.3982 9.88974 15.828 10.3195 16.3582 10.3195C16.8884 10.3195 17.3182 9.88974 17.3182 9.35954C17.3182 8.82935 16.8884 8.39954 16.3582 8.39954C15.828 8.39954 15.3982 8.82935 15.3982 9.35954ZM8.18797 19.8976C8.18797 20.4278 8.61779 20.8576 9.14798 20.8576C9.67818 20.8576 10.108 20.4278 10.108 19.8976C10.108 19.3674 9.67818 18.9376 9.14798 18.9376C8.61779 18.9376 8.18797 19.3674 8.18797 19.8976ZM9.14798 6.96011C8.61779 6.96011 8.18797 6.5303 8.18797 6.00011C8.18797 5.46991 8.61779 5.0401 9.14798 5.0401C9.67818 5.0401 10.108 5.46991 10.108 6.00011C10.108 6.5303 9.67818 6.96011 9.14798 6.96011ZM9.19027 12.8752C9.19027 13.4054 9.62007 13.8352 10.1503 13.8352H20.9473C21.4775 13.8352 21.9073 13.4054 21.9073 12.8752C21.9073 12.345 21.4775 11.9152 20.9473 11.9152H10.1503C9.62007 11.9152 9.19027 12.345 9.19027 12.8752ZM7.41153 13.8352C6.88133 13.8352 6.45151 13.4054 6.45151 12.8752C6.45151 12.345 6.88133 11.9152 7.41153 11.9152C7.94172 11.9152 8.37154 12.345 8.37154 12.8752C8.37154 13.4054 7.94172 13.8352 7.41153 13.8352Z" fill="black"/>
</svg>

<svg width="24" height="24" viewBox="0 0 24 24" fill="none"><path fill="#000" fill-rule="evenodd" d="M12 24c6.627 0 12-5.372 12-12 0-6.627-5.373-12-12-12-4.033 0-7.601 1.99-9.777 5.04h4.44a.96.96 0 0 1 0 1.92H1.106Q.783 7.657.55 8.4h13.173a.96.96 0 1 1 0 1.92H.116A12 12 0 0 0 0 11.915h4.687a.96.96 0 1 1 0 1.92H.139q.12.781.337 1.525h13.246a.96.96 0 1 1 0 1.92H1.221q.426.868.982 1.651h4.46a.96.96 0 1 1 0 1.92H3.897A11.96 11.96 0 0 0 12 24.002m4.358-6.72a.96.96 0 1 1 0-1.92.96.96 0 0 1 0 1.92m-.96-7.92a.96.96 0 1 0 1.92 0 .96.96 0 0 0-1.92 0M8.188 19.9a.96.96 0 1 0 1.92 0 .96.96 0 0 0-1.92 0m.96-12.938a.96.96 0 1 1 0-1.92.96.96 0 0 1 0 1.92m.042 5.915c0 .53.43.96.96.96h10.797a.96.96 0 1 0 0-1.92H10.15a.96.96 0 0 0-.96.96m-1.778.96a.96.96 0 1 1 0-1.92.96.96 0 0 1 0 1.92" clip-rule="evenodd"/></svg>
